content/_snippets/hardware/pushbutton/image.svg

<svg width="70" height="95" viewBox="0 0 70 95" fill="none" xmlns="http://www.w3.org/2000/svg">
<path d="M15.3701 94.59C13.4801 94.59 11.9501 93.06 11.9501 91.17V23.79C11.9501 21.9 13.4801 20.37 15.3701 20.37C17.2601 20.37 18.7901 21.9 18.7901 23.79V91.17C18.7801 93.06 17.2501 94.59 15.3701 94.59Z" fill="#BDC7C7"/>
<path d="M53.9001 94.59C52.0101 94.59 50.4801 93.06 50.4801 91.17V23.79C50.4801 21.9 52.0101 20.37 53.9001 20.37C55.7901 20.37 57.3201 21.9 57.3201 23.79V91.17C57.3201 93.06 55.7901 94.59 53.9001 94.59Z" fill="#BDC7C7"/>
<path d="M63.63 0.0100098C66.74 0.0100098 69.28 2.54996 69.28 5.64996V63.62C69.28 66.73 66.74 69.27 63.63 69.27H5.65001C2.54001 69.27 0 66.73 0 63.62V5.64996C0 2.53996 2.53001 0 5.65001 0L63.63 0.0100098Z" fill="#58595B"/>
<path d="M6.02002 59.32C6.02002 57 7.90002 55.12 10.22 55.12C12.54 55.12 14.42 57 14.42 59.32C14.42 61.64 12.54 63.52 10.22 63.52C7.91002 63.52 6.02002 61.64 6.02002 59.32Z" fill="#171E21"/>
<path d="M6.12 10.07C6.12 7.75001 7.99999 5.87 10.32 5.87C12.64 5.87 14.52 7.75001 14.52 10.07C14.52 12.39 12.64 14.27 10.32 14.27C8.00999 14.26 6.12 12.38 6.12 10.07Z" fill="#171E21"/>
<path d="M55.39 10.17C55.39 7.84998 57.27 5.96997 59.59 5.96997C61.91 5.96997 63.79 7.84998 63.79 10.17C63.79 12.49 61.91 14.37 59.59 14.37C57.27 14.37 55.39 12.49 55.39 10.17Z" fill="#171E21"/>
<path d="M55.14 59.29C55.14 56.97 57.02 55.09 59.34 55.09C61.66 55.09 63.54 56.97 63.54 59.29C63.54 61.61 61.66 63.49 59.34 63.49C57.02 63.49 55.14 61.61 55.14 59.29Z" fill="#171E21"/>
<path d="M11.3099 34.76C11.3099 21.71 21.9 11.12 34.95 11.12C48.02 11.12 58.5999 21.71 58.5999 34.76C58.5999 47.83 48.01 58.42 34.95 58.42C21.9 58.41 11.3099 47.82 11.3099 34.76Z" fill="#7F8C8D"/>
<path d="M25.1801 34.76C25.1801 29.36 29.5601 24.98 34.9501 24.98C40.3501 24.98 44.7301 29.36 44.7301 34.76C44.7301 40.16 40.3501 44.54 34.9501 44.54C29.5601 44.54 25.1801 40.16 25.1801 34.76Z" fill="#BDC7C7"/>
</svg>

<svg xmlns="http://www.w3.org/2000/svg" width="70" height="95" fill="none" viewBox="0 0 70 95"><path fill="#bdc7c7" d="M15.37 94.59c-1.89 0-3.42-1.53-3.42-3.42V23.79c0-1.89 1.53-3.42 3.42-3.42s3.42 1.53 3.42 3.42v67.38c-.01 1.89-1.54 3.42-3.42 3.42M53.9 94.59c-1.89 0-3.42-1.53-3.42-3.42V23.79c0-1.89 1.53-3.42 3.42-3.42s3.42 1.53 3.42 3.42v67.38c0 1.89-1.53 3.42-3.42 3.42"/><path fill="#58595b" d="M63.63.01c3.11 0 5.65 2.54 5.65 5.64v57.97c0 3.11-2.54 5.65-5.65 5.65H5.65C2.54 69.27 0 66.73 0 63.62V5.65C0 2.54 2.53 0 5.65 0z"/><path fill="#171e21" d="M6.02 59.32a4.2 4.2 0 1 1 8.399-.001 4.2 4.2 0 0 1-8.399.001M6.12 10.07a4.2 4.2 0 1 1 4.2 4.2c-2.31-.01-4.2-1.89-4.2-4.2M55.39 10.17a4.2 4.2 0 1 1 8.399-.001 4.2 4.2 0 0 1-8.399.001M55.14 59.29a4.2 4.2 0 1 1 8.399-.001 4.2 4.2 0 0 1-8.399.001"/><path fill="#7f8c8d" d="M11.31 34.76c0-13.05 10.59-23.64 23.64-23.64 13.07 0 23.65 10.59 23.65 23.64 0 13.07-10.59 23.66-23.65 23.66-13.05-.01-23.64-10.6-23.64-23.66"/><path fill="#bdc7c7" d="M25.18 34.76c0-5.4 4.38-9.78 9.77-9.78 5.4 0 9.78 4.38 9.78 9.78s-4.38 9.78-9.78 9.78c-5.39 0-9.77-4.38-9.77-9.78"/></svg>
